X: 8525
T: Creeping Docken
R: jig
M: 6/8
K: Dmixolydian
EAA AGA|B3 GED|GED GED|EDE GED|
EAA AGA|B3 GAB|cBc BAG|1 EDE D2B:|2 EDD D2e||
|:fdd cdd|fdd d2 e|f3 ged|cAA A2g|
fga efg|f3 d2 B|cBc BAG|1 EDD D2e:|2 EDD D2B||

